svg/solid/bxs-tree.svg

<svg xmlns="http://www.w3.org/2000/svg" width="24" height="24"><path d="m20 18-4-5h3l-4-5h2l-5-6-5 6h2l-4 5h3l-4 5h7v4h2v-4z"/></svg>

<svg xmlns="http://www.w3.org/2000/svg" width="24" height="24" viewBox="0 0 24 24"><path d="M20 18L16 13 19 13 15 8 17 8 12 2 7 8 9 8 5 13 8 13 4 18 11 18 11 22 13 22 13 18z"/></svg>
